images/50531972.svg

<?xml version="1.0" encoding="UTF-8"?>
<svg xmlns="http://www.w3.org/2000/svg" xmlns:xlink="http://www.w3.org/1999/xlink" width="300pt" height="300pt" viewBox="0 0 300 300" version="1.1">
<defs>
<g>
<symbol overflow="visible" id="glyph0-0">
<path style="stroke:none;" d="M 0.453125 1.59375 L 0.453125 -6.34375 L 4.953125 -6.34375 L 4.953125 1.59375 Z M 0.953125 1.09375 L 4.453125 1.09375 L 4.453125 -5.84375 L 0.953125 -5.84375 Z M 0.953125 1.09375 "/>
</symbol>
<symbol overflow="visible" id="glyph0-1">
<path style="stroke:none;" d="M 4.8125 -6.34375 L 4.8125 -5.484375 C 4.476562 -5.640625 4.160156 -5.753906 3.859375 -5.828125 C 3.566406 -5.910156 3.28125 -5.953125 3 -5.953125 C 2.507812 -5.953125 2.132812 -5.859375 1.875 -5.671875 C 1.613281 -5.484375 1.484375 -5.21875 1.484375 -4.875 C 1.484375 -4.582031 1.570312 -4.363281 1.75 -4.21875 C 1.925781 -4.070312 2.253906 -3.953125 2.734375 -3.859375 L 3.28125 -3.75 C 3.9375 -3.625 4.421875 -3.398438 4.734375 -3.078125 C 5.054688 -2.765625 5.21875 -2.34375 5.21875 -1.8125 C 5.21875 -1.175781 5.003906 -0.691406 4.578125 -0.359375 C 4.148438 -0.0351562 3.523438 0.125 2.703125 0.125 C 2.390625 0.125 2.054688 0.0859375 1.703125 0.015625 C 1.359375 -0.046875 1 -0.148438 0.625 -0.296875 L 0.625 -1.203125 C 0.976562 -1.003906 1.328125 -0.851562 1.671875 -0.75 C 2.023438 -0.644531 2.367188 -0.59375 2.703125 -0.59375 C 3.203125 -0.59375 3.585938 -0.691406 3.859375 -0.890625 C 4.140625 -1.085938 4.28125 -1.375 4.28125 -1.75 C 4.28125 -2.070312 4.179688 -2.320312 3.984375 -2.5 C 3.785156 -2.675781 3.460938 -2.8125 3.015625 -2.90625 L 2.46875 -3.015625 C 1.8125 -3.148438 1.332031 -3.359375 1.03125 -3.640625 C 0.738281 -3.921875 0.59375 -4.3125 0.59375 -4.8125 C 0.59375 -5.382812 0.796875 -5.835938 1.203125 -6.171875 C 1.609375 -6.515625 2.171875 -6.6875 2.890625 -6.6875 C 3.203125 -6.6875 3.515625 -6.65625 3.828125 -6.59375 C 4.148438 -6.539062 4.476562 -6.457031 4.8125 -6.34375 Z M 4.8125 -6.34375 "/>
</symbol>
<symbol overflow="visible" id="glyph0-2">
<path style="stroke:none;" d="M 3.546875 -5.953125 C 2.898438 -5.953125 2.382812 -5.710938 2 -5.234375 C 1.625 -4.753906 1.4375 -4.101562 1.4375 -3.28125 C 1.4375 -2.445312 1.625 -1.789062 2 -1.3125 C 2.382812 -0.832031 2.898438 -0.59375 3.546875 -0.59375 C 4.191406 -0.59375 4.703125 -0.832031 5.078125 -1.3125 C 5.453125 -1.789062 5.640625 -2.445312 5.640625 -3.28125 C 5.640625 -4.101562 5.453125 -4.753906 5.078125 -5.234375 C 4.703125 -5.710938 4.191406 -5.953125 3.546875 -5.953125 Z M 3.546875 -6.6875 C 4.460938 -6.6875 5.195312 -6.375 5.75 -5.75 C 6.300781 -5.132812 6.578125 -4.3125 6.578125 -3.28125 C 6.578125 -2.238281 6.300781 -1.410156 5.75 -0.796875 C 5.195312 -0.179688 4.460938 0.125 3.546875 0.125 C 2.617188 0.125 1.878906 -0.179688 1.328125 -0.796875 C 0.773438 -1.410156 0.5 -2.238281 0.5 -3.28125 C 0.5 -4.3125 0.773438 -5.132812 1.328125 -5.75 C 1.878906 -6.375 2.617188 -6.6875 3.546875 -6.6875 Z M 3.546875 -6.6875 "/>
</symbol>
</g>
</defs>
<g id="surface10673">
<rect x="0" y="0" width="300" height="300" style="fill:rgb(100%,100%,100%);fill-opacity:1;stroke:none;"/>
<path style="fill:none;stroke-width:1.2;stroke-linecap:butt;stroke-linejoin:miter;stroke:rgb(80%,80%,0%);stroke-opacity:1;stroke-miterlimit:10;" d="M 56.734375 191.765625 L 59.800781 204.070312 "/>
<path style="fill:none;stroke-width:1.2;stroke-linecap:butt;stroke-linejoin:miter;stroke:rgb(100%,0%,0%);stroke-opacity:1;stroke-miterlimit:10;" d="M 59.800781 204.070312 L 62.867188 216.375 "/>
<path style="fill:none;stroke-width:1.2;stroke-linecap:butt;stroke-linejoin:miter;stroke:rgb(80%,80%,0%);stroke-opacity:1;stroke-miterlimit:10;" d="M 62.523438 190.324219 L 65.589844 202.625 "/>
<path style="fill:none;stroke-width:1.2;stroke-linecap:butt;stroke-linejoin:miter;stroke:rgb(100%,0%,0%);stroke-opacity:1;stroke-miterlimit:10;" d="M 65.589844 202.625 L 68.65625 214.929688 "/>
<path style="fill:none;stroke-width:1.2;stroke-linecap:butt;stroke-linejoin:miter;stroke:rgb(80%,80%,0%);stroke-opacity:1;stroke-miterlimit:10;" d="M 59.628906 191.042969 L 47.4375 187.546875 "/>
<path style="fill:none;stroke-width:1.2;stroke-linecap:butt;stroke-linejoin:miter;stroke:rgb(0%,0%,0%);stroke-opacity:1;stroke-miterlimit:10;" d="M 47.4375 187.546875 L 35.25 184.050781 "/>
<path style="fill:none;stroke-width:1.2;stroke-linecap:butt;stroke-linejoin:miter;stroke:rgb(80%,80%,0%);stroke-opacity:1;stroke-miterlimit:10;" d="M 59.628906 191.042969 L 68.75 182.234375 "/>
<path style="fill:none;stroke-width:1.2;stroke-linecap:butt;stroke-linejoin:miter;stroke:rgb(0%,0%,0%);stroke-opacity:1;stroke-miterlimit:10;" d="M 68.75 182.234375 L 77.871094 173.429688 "/>
<path style=" stroke:none;fill-rule:nonzero;fill:rgb(100%,100%,100%);fill-opacity:1;" d="M 56.628906 185.542969 L 62.628906 185.542969 L 62.628906 196.542969 L 56.628906 196.542969 Z M 56.628906 185.542969 "/>
<g style="fill:rgb(80%,80%,0%);fill-opacity:1;">
  <use xlink:href="#glyph0-1" x="56.628906" y="194.206055"/>
</g>
<path style=" stroke:none;fill-rule:nonzero;fill:rgb(100%,100%,100%);fill-opacity:1;" d="M 61.761719 210.152344 L 69.761719 210.152344 L 69.761719 221.152344 L 61.761719 221.152344 Z M 61.761719 210.152344 "/>
<g style="fill:rgb(100%,0%,0%);fill-opacity:1;">
  <use xlink:href="#glyph0-2" x="61.761719" y="218.81543"/>
</g>
<path style="fill:none;stroke-width:1.2;stroke-linecap:butt;stroke-linejoin:miter;stroke:rgb(0%,0%,0%);stroke-opacity:1;stroke-miterlimit:10;" d="M 77.871094 173.429688 L 71.738281 148.820312 "/>
<path style="fill:none;stroke-width:1.2;stroke-linecap:butt;stroke-linejoin:miter;stroke:rgb(0%,0%,0%);stroke-opacity:1;stroke-miterlimit:10;" d="M 83.050781 169.523438 L 78.140625 149.835938 "/>
<path style="fill:none;stroke-width:1.2;stroke-linecap:butt;stroke-linejoin:miter;stroke:rgb(0%,0%,0%);stroke-opacity:1;stroke-miterlimit:10;" d="M 102.25 180.417969 L 77.871094 173.429688 "/>
<path style="fill:none;stroke-width:1.2;stroke-linecap:butt;stroke-linejoin:miter;stroke:rgb(0%,0%,0%);stroke-opacity:1;stroke-miterlimit:10;" d="M 71.738281 148.820312 L 89.980469 131.203125 "/>
<path style="fill:none;stroke-width:1.2;stroke-linecap:butt;stroke-linejoin:miter;stroke:rgb(0%,0%,0%);stroke-opacity:1;stroke-miterlimit:10;" d="M 89.980469 131.203125 L 114.359375 138.195312 "/>
<path style="fill:none;stroke-width:1.2;stroke-linecap:butt;stroke-linejoin:miter;stroke:rgb(0%,0%,0%);stroke-opacity:1;stroke-miterlimit:10;" d="M 90.773438 137.636719 L 110.277344 143.230469 "/>
<path style="fill:none;stroke-width:1.2;stroke-linecap:butt;stroke-linejoin:miter;stroke:rgb(0%,0%,0%);stroke-opacity:1;stroke-miterlimit:10;" d="M 114.359375 138.195312 L 120.496094 162.804688 "/>
<path style="fill:none;stroke-width:1.2;stroke-linecap:butt;stroke-linejoin:miter;stroke:rgb(0%,0%,0%);stroke-opacity:1;stroke-miterlimit:10;" d="M 114.359375 138.195312 L 132.605469 120.578125 "/>
<path style="fill:none;stroke-width:1.2;stroke-linecap:butt;stroke-linejoin:miter;stroke:rgb(0%,0%,0%);stroke-opacity:1;stroke-miterlimit:10;" d="M 120.496094 162.804688 L 102.25 180.417969 "/>
<path style="fill:none;stroke-width:1.2;stroke-linecap:butt;stroke-linejoin:miter;stroke:rgb(0%,0%,0%);stroke-opacity:1;stroke-miterlimit:10;" d="M 114.527344 160.273438 L 99.929688 174.363281 "/>
<path style="fill:none;stroke-width:1.2;stroke-linecap:butt;stroke-linejoin:miter;stroke:rgb(0%,0%,0%);stroke-opacity:1;stroke-miterlimit:10;" d="M 132.605469 120.578125 L 157.582031 124.984375 "/>
<path style="fill:none;stroke-width:1.2;stroke-linecap:butt;stroke-linejoin:miter;stroke:rgb(0%,0%,0%);stroke-opacity:1;stroke-miterlimit:10;" d="M 129.078125 95.464844 L 132.605469 120.578125 "/>
<path style="fill:none;stroke-width:1.2;stroke-linecap:butt;stroke-linejoin:miter;stroke:rgb(0%,0%,0%);stroke-opacity:1;stroke-miterlimit:10;" d="M 135.339844 97.144531 L 138.160156 117.238281 "/>
<path style="fill:none;stroke-width:1.2;stroke-linecap:butt;stroke-linejoin:miter;stroke:rgb(0%,0%,0%);stroke-opacity:1;stroke-miterlimit:10;" d="M 157.582031 124.984375 L 171.019531 146.492188 "/>
<path style="fill:none;stroke-width:1.2;stroke-linecap:butt;stroke-linejoin:miter;stroke:rgb(0%,0%,0%);stroke-opacity:1;stroke-miterlimit:10;" d="M 163.984375 123.972656 L 174.734375 141.179688 "/>
<path style="fill:none;stroke-width:1.2;stroke-linecap:butt;stroke-linejoin:miter;stroke:rgb(0%,0%,0%);stroke-opacity:1;stroke-miterlimit:10;" d="M 169.488281 102.589844 L 157.582031 124.984375 "/>
<path style="fill:none;stroke-width:1.2;stroke-linecap:butt;stroke-linejoin:miter;stroke:rgb(0%,0%,0%);stroke-opacity:1;stroke-miterlimit:10;" d="M 171.019531 146.492188 L 196.363281 145.609375 "/>
<path style="fill:none;stroke-width:1.2;stroke-linecap:butt;stroke-linejoin:miter;stroke:rgb(0%,0%,0%);stroke-opacity:1;stroke-miterlimit:10;" d="M 196.363281 145.609375 L 208.273438 123.214844 "/>
<path style="fill:none;stroke-width:1.2;stroke-linecap:butt;stroke-linejoin:miter;stroke:rgb(0%,0%,0%);stroke-opacity:1;stroke-miterlimit:10;" d="M 192.285156 140.566406 L 201.8125 122.652344 "/>
<path style="fill:none;stroke-width:1.2;stroke-linecap:butt;stroke-linejoin:miter;stroke:rgb(0%,0%,0%);stroke-opacity:1;stroke-miterlimit:10;" d="M 196.363281 145.609375 L 209.800781 167.117188 "/>
<path style="fill:none;stroke-width:1.2;stroke-linecap:butt;stroke-linejoin:miter;stroke:rgb(0%,0%,0%);stroke-opacity:1;stroke-miterlimit:10;" d="M 208.273438 123.214844 L 194.832031 101.707031 "/>
<path style="fill:none;stroke-width:1.2;stroke-linecap:butt;stroke-linejoin:miter;stroke:rgb(0%,0%,0%);stroke-opacity:1;stroke-miterlimit:10;" d="M 194.832031 101.707031 L 169.488281 102.589844 "/>
<path style="fill:none;stroke-width:1.2;stroke-linecap:butt;stroke-linejoin:miter;stroke:rgb(0%,0%,0%);stroke-opacity:1;stroke-miterlimit:10;" d="M 192.507812 107.761719 L 172.230469 108.46875 "/>
<path style="fill:none;stroke-width:1.2;stroke-linecap:butt;stroke-linejoin:miter;stroke:rgb(0%,0%,0%);stroke-opacity:1;stroke-miterlimit:10;" d="M 169.488281 102.589844 L 160.679688 93.46875 "/>
<path style="fill:none;stroke-width:1.2;stroke-linecap:butt;stroke-linejoin:miter;stroke:rgb(100%,0%,0%);stroke-opacity:1;stroke-miterlimit:10;" d="M 160.679688 93.46875 L 151.871094 84.347656 "/>
<path style="fill:none;stroke-width:1.2;stroke-linecap:butt;stroke-linejoin:miter;stroke:rgb(100%,0%,0%);stroke-opacity:1;stroke-miterlimit:10;" d="M 151.871094 84.347656 L 140.472656 89.90625 "/>
<path style="fill:none;stroke-width:1.2;stroke-linecap:butt;stroke-linejoin:miter;stroke:rgb(0%,0%,0%);stroke-opacity:1;stroke-miterlimit:10;" d="M 140.472656 89.90625 L 129.078125 95.464844 "/>
<path style=" stroke:none;fill-rule:nonzero;fill:rgb(100%,100%,100%);fill-opacity:1;" d="M 147.871094 78.847656 L 155.871094 78.847656 L 155.871094 89.847656 L 147.871094 89.847656 Z M 147.871094 78.847656 "/>
<g style="fill:rgb(100%,0%,0%);fill-opacity:1;">
  <use xlink:href="#glyph0-2" x="147.871094" y="87.510742"/>
</g>
<path style="fill:none;stroke-width:1.2;stroke-linecap:butt;stroke-linejoin:miter;stroke:rgb(0%,0%,0%);stroke-opacity:1;stroke-miterlimit:10;" d="M 209.800781 167.117188 L 222.453125 168 "/>
<path style="fill:none;stroke-width:1.2;stroke-linecap:butt;stroke-linejoin:miter;stroke:rgb(100%,0%,0%);stroke-opacity:1;stroke-miterlimit:10;" d="M 222.453125 168 L 235.101562 168.886719 "/>
<path style="fill:none;stroke-width:1.2;stroke-linecap:butt;stroke-linejoin:miter;stroke:rgb(0%,0%,0%);stroke-opacity:1;stroke-miterlimit:10;" d="M 200.300781 190.628906 L 209.800781 167.117188 "/>
<path style="fill:none;stroke-width:1.2;stroke-linecap:butt;stroke-linejoin:miter;stroke:rgb(0%,0%,0%);stroke-opacity:1;stroke-miterlimit:10;" d="M 206.785156 190.515625 L 214.386719 171.703125 "/>
<path style="fill:none;stroke-width:1.2;stroke-linecap:butt;stroke-linejoin:miter;stroke:rgb(100%,0%,0%);stroke-opacity:1;stroke-miterlimit:10;" d="M 235.101562 168.886719 L 238.167969 181.191406 "/>
<path style="fill:none;stroke-width:1.2;stroke-linecap:butt;stroke-linejoin:miter;stroke:rgb(0%,0%,0%);stroke-opacity:1;stroke-miterlimit:10;" d="M 238.167969 181.191406 L 241.234375 193.496094 "/>
<path style=" stroke:none;fill-rule:nonzero;fill:rgb(100%,100%,100%);fill-opacity:1;" d="M 231.101562 163.386719 L 239.101562 163.386719 L 239.101562 174.386719 L 231.101562 174.386719 Z M 231.101562 163.386719 "/>
<g style="fill:rgb(100%,0%,0%);fill-opacity:1;">
  <use xlink:href="#glyph0-2" x="231.101562" y="172.049805"/>
</g>
<path style="fill:none;stroke-width:1.2;stroke-linecap:butt;stroke-linejoin:miter;stroke:rgb(0%,0%,0%);stroke-opacity:1;stroke-miterlimit:10;" d="M 241.234375 193.496094 L 219.726562 206.933594 "/>
<path style="fill:none;stroke-width:1.2;stroke-linecap:butt;stroke-linejoin:miter;stroke:rgb(0%,0%,0%);stroke-opacity:1;stroke-miterlimit:10;" d="M 235.921875 189.777344 L 218.71875 200.527344 "/>
<path style="fill:none;stroke-width:1.2;stroke-linecap:butt;stroke-linejoin:miter;stroke:rgb(0%,0%,0%);stroke-opacity:1;stroke-miterlimit:10;" d="M 241.234375 193.496094 L 264.75 202.996094 "/>
<path style="fill:none;stroke-width:1.2;stroke-linecap:butt;stroke-linejoin:miter;stroke:rgb(0%,0%,0%);stroke-opacity:1;stroke-miterlimit:10;" d="M 219.726562 206.933594 L 200.300781 190.628906 "/>
</g>
</svg>

<svg xmlns="http://www.w3.org/2000/svg" xmlns:xlink="http://www.w3.org/1999/xlink" width="300pt" height="300pt" viewBox="0 0 300 300"><defs><symbol overflow="visible"><path d="M.453 1.594v-7.938h4.5v7.938zm.5-.5h3.5v-6.938h-3.5zm0 0"/></symbol><symbol overflow="visible" id="a"><path d="M4.813-6.344v.86c-.336-.157-.653-.27-.954-.344-.294-.082-.58-.125-.86-.125-.492 0-.867.094-1.125.28-.262.19-.39.454-.39.798 0 .293.085.512.265.656.176.15.504.267.984.36l.547.11c.658.125 1.142.352 1.454.672.32.312.485.734.485 1.265 0 .637-.216 1.122-.642 1.454-.43.325-1.055.485-1.875.485-.312 0-.648-.04-1-.11C1.36-.046 1-.147.625-.296v-.906c.352.2.703.35 1.047.453.35.105.695.156 1.03.156.5 0 .884-.097 1.157-.297.28-.196.42-.485.42-.86 0-.32-.1-.57-.296-.75-.2-.176-.523-.313-.968-.406l-.547-.11C1.81-3.148 1.33-3.36 1.03-3.64.74-3.923.595-4.313.595-4.813c0-.57.203-1.024.61-1.36.405-.344.968-.516 1.687-.516.313 0 .626.032.938.094.32.055.65.137.985.25zm0 0"/></symbol><symbol overflow="visible" id="b"><path d="M3.547-5.953c-.65 0-1.164.242-1.547.72-.375.48-.563 1.13-.563 1.952 0 .835.188 1.49.563 1.967.383.48.898.72 1.547.72.644 0 1.156-.24 1.53-.72.376-.476.564-1.132.564-1.968 0-.822-.187-1.474-.562-1.954-.375-.477-.887-.72-1.53-.72zm0-.734c.914 0 1.648.312 2.203.937.55.617.828 1.438.828 2.47 0 1.042-.277 1.87-.828 2.483-.555.617-1.29.922-2.203.922-.93 0-1.668-.305-2.22-.922C.774-1.41.5-2.237.5-3.28c0-1.033.273-1.853.828-2.47.55-.625 1.29-.938 2.22-.938zm0 0"/></symbol></defs><g><path fill="#fff" d="M0 0h300v300H0z"/><path d="M56.734 191.766L59.8 204.07" stroke-width="1.2" stroke="#cc0" stroke-miterlimit="10" fill="none"/><path d="M59.8 204.07l3.067 12.305" stroke-width="1.2" stroke="#f00" stroke-miterlimit="10" fill="none"/><path d="M62.523 190.324l3.067 12.3" stroke-width="1.2" stroke="#cc0" stroke-miterlimit="10" fill="none"/><path d="M65.59 202.625l3.066 12.305" stroke-width="1.2" stroke="#f00" stroke-miterlimit="10" fill="none"/><path d="M59.63 191.043l-12.193-3.496" stroke-width="1.2" stroke="#cc0" stroke-miterlimit="10" fill="none"/><path d="M47.438 187.547L35.25 184.05" stroke-width="1.2" stroke="#000" stroke-miterlimit="10" fill="none"/><path d="M59.63 191.043l9.12-8.81" stroke-width="1.2" stroke="#cc0" stroke-miterlimit="10" fill="none"/><path d="M68.75 182.234l9.12-8.804" stroke-width="1.2" stroke="#000" stroke-miterlimit="10" fill="none"/><path d="M56.63 185.543h6v11h-6zm0 0" fill="#fff"/><use xlink:href="#a" x="56.629" y="194.206" fill="#cc0"/><path d="M61.762 210.152h8v11h-8zm0 0" fill="#fff"/><use xlink:href="#b" x="61.762" y="218.815" fill="#f00"/><path d="M77.87 173.43l-6.132-24.61M83.05 169.523l-4.91-19.687M102.25 180.418l-24.38-6.988M71.738 148.82l18.242-17.617M89.98 131.203l24.38 6.992M90.773 137.637l19.504 5.593M114.36 138.195l6.136 24.61M114.36 138.195l18.245-17.617M120.496 162.805l-18.246 17.613M114.527 160.273l-14.597 14.09M132.605 120.578l24.977 4.406M129.078 95.465l3.527 25.113M135.34 97.145l2.82 20.093M157.582 124.984l13.438 21.508M163.984 123.973l10.75 17.207M169.488 102.59l-11.906 22.394M171.02 146.492l25.343-.883M196.363 145.61l11.91-22.395M192.285 140.566l9.528-17.914M196.363 145.61l13.438 21.507M208.273 123.215l-13.44-21.508M194.832 101.707l-25.344.883M192.508 107.762l-20.278.707M169.488 102.59l-8.808-9.12" stroke-width="1.2" stroke="#000" stroke-miterlimit="10" fill="none"/><path d="M160.68 93.47l-8.81-9.122M151.87 84.348l-11.397 5.558" stroke-width="1.2" stroke="#f00" stroke-miterlimit="10" fill="none"/><path d="M140.473 89.906l-11.395 5.56" stroke-width="1.2" stroke="#000" stroke-miterlimit="10" fill="none"/><path d="M147.87 78.848h8v11h-8zm0 0" fill="#fff"/><use xlink:href="#b" x="147.871" y="87.511" fill="#f00"/><path d="M209.8 167.117l12.653.883" stroke-width="1.2" stroke="#000" stroke-miterlimit="10" fill="none"/><path d="M222.453 168l12.65.887" stroke-width="1.2" stroke="#f00" stroke-miterlimit="10" fill="none"/><path d="M200.3 190.63l9.5-23.513M206.785 190.516l7.602-18.813" stroke-width="1.2" stroke="#000" stroke-miterlimit="10" fill="none"/><path d="M235.102 168.887l3.066 12.304" stroke-width="1.2" stroke="#f00" stroke-miterlimit="10" fill="none"/><path d="M238.168 181.19l3.066 12.306" stroke-width="1.2" stroke="#000" stroke-miterlimit="10" fill="none"/><path d="M231.102 163.387h8v11h-8zm0 0" fill="#fff"/><use xlink:href="#b" x="231.102" y="172.05" fill="#f00"/><path d="M241.234 193.496l-21.507 13.438M235.922 189.777l-17.203 10.75M241.234 193.496l23.516 9.5M219.727 206.934L200.3 190.63" stroke-width="1.2" stroke="#000" stroke-miterlimit="10" fill="none"/></g></svg>
